X:1
T:Still He Is Pleading
T:Still He Is Pleading
T:Corydon Benjamin Hopkins
T:Corydon Benjamin Hopkins, 1912
T:Public Domain Courtesy of the Cyber Hymnal™
T:Public Domain Courtesy of the Cyber Hymnal™
C:Corydon Benjamin Hopkins
Z:Public Domain
Z:Courtesy of the Cyber Hymnal™
%%score ( 1 2 ) ( 3 4 )
L:1/8
Q:1/4=130
M:6/4
K:Ab
V:1 treble 
V:2 treble 
V:3 bass 
V:4 bass 
V:1
 [Ec]2 [Fd]2 [Ec]2 [Ec]2 [CA]2 [CE]2 | [DF]2 [FA]3 [DF] [CE]6 | [Ec]2 [Fc]2 [Ac]2 [Gd]6 | %3
w: 1.~Some one has slight- ed the|Sav- ior to- day;|Has it been you?|
w: 2.~Some one has care- less- ly|spok- en His name;|Has it been you?|
w: 3.~Some one has said, “Till to-|mor- row I’ll wait.”|Has it been you?|
w: 4.~Some one will heed Him and|make Him their choice;|Will it be you?|
 [Bd]2 [Gd]2 [Fd]2 [Ec]6 | [Ec]2 [Fd]2 [Ec]2 [Ec]2 [=D=B]2 [Ec]2 | [CA]2 [EB]2 [_Gc]2 [Fd]6 | %6
w: Has it been me?|Some one has heed- less- ly|turned Him a- way;|
w: Has it been me?|Some one has brought to Him|sor- row and shame.|
w: Has it been me?|Some one will find that to-|mor- row’s too late—|
w: Will it be me?|Some one in Him will for-|ev- er re- joice—|
 [DG]2 [DE]2 [Fd]2 [Ec]4 [DB]2 | [CA]12 ||"^Refrain" [EB]2 [E=A]2 [EB]2 [Ed]2 [Ec]2 [E=B]2 | %9
w: Has it been you or|me?||
w: Has it been you or|me?|Still He is lov- ing- ly|
w: Will it be you or|me?||
w: Will it be you or|me?||
 [Ec]2 [FA]3 [DF] [CE]6 | [Ec]2 [Fc]2 [Ac]2 [Gd]6 | [Bd]2 [Gd]2 [Fd]2 [Ec]6 | %12
w: |||
w: plead- ing to- day,|Plead- ing with you,|plead- ing with me;|
w: |||
w: |||
 [Ae]2 [A=d]2 [Ae]2 [Ec]2 [EB]2 [EA]2 | [DF]2 [FA]2 [_FB]2 [Ec]6 | %14
w: ||
w: Tho’ we so oft- en have|turned Him a- way,|
w: ||
w: ||
"^riten." [Fd]3 [Ec] [EA]2 E2!<(! [DG]2 [DB]2 | [CA]12!<)! |] %16
w: ||
w: He’s plead- ing with you and|me.|
w: ||
w: ||
V:2
 x12 | x12 | x12 | x12 | x12 | x12 | x12 | x12 || x12 | x12 | x12 | x12 | x12 | x12 | x6 E2 x4 | %15
 x12 |] %16
V:3
 [A,,A,]6 [E,A,]4 [A,,A,]2 | [D,A,]6 [A,,A,]6 | [E,A,]6 [E,B,]6 | [E,G,]6 [A,,A,]6 | %4
 [A,,A,]6 [A,,A,]6 | [F,A,]2 [E,G,]2 [A,,A,]2 [D,A,]6 | [E,,E,]6 [E,G,]6 | [A,,A,]12 || %8
 [E,G,]2 [E,^F,]2 [E,G,]2 [E,B,]2 [E,A,]2 [E,G,]2 | [A,,A,]2 [D,A,]3 [F,A,] A,6 | %10
 [E,A,]2 [E,A,]2 [E,E]2 [B,E]6 | [E,E]2 [E,B,]2 [E,G,]2 [A,,A,]6 | %12
 [A,C]2 [A,=B,]2 [A,C]2 [A,,A,]2 [=B,,G,]2 [C,A,]2 | [D,A,]2 [D,A,]2 [D,A,]2 [A,,A,]6 | %14
 [D,A,]3 [E,A,] [E,C]2 [E,D]2 [E,B,]2 [E,G,]2 | [A,,A,]12 |] %16
V:4
 x12 | x12 | x12 | x12 | x12 | x12 | x12 | x12 || x12 | x6 A,6 | x12 | x12 | x12 | x12 | x12 | %15
 x12 |] %16

